X: 3527
T: Big Egg, The
R: jig
M: 6/8
K: Eminor
"Em"EGB ^cdc|BGF "C"E2D|"Em"EGB ^cdc|Ba^g "B7"=g2d|
"Em"EGB ^cdc|BGF "C"ED=C|"Cmaj7"B,EG BcB|1 "B7" ^AD^D "Em"E2B:|2 "B7"^AD^D "Em"EFG||
"Am"Ace Ace|a^g=g "F"=f2c|"Am"Ace Ace|"F"=fec "E7"dB^G|
"Am"Ace Ace|a^g=g "F"=fed|"Cmaj7"cE=G BcB|1 "B7" ^AD^D "Em"EFG:|2 "B7"^AD^D "Em"E3||

